svg/education/book_6_fill.svg

<?xml version="1.0" encoding="UTF-8"?>
<svg width="24px" height="24px" viewBox="0 0 24 24" version="1.1" xmlns="http://www.w3.org/2000/svg" xmlns:xlink="http://www.w3.org/1999/xlink">
    <title>book_6_fill</title>
    <g id="页面-1" stroke="none" stroke-width="1" fill="none" fill-rule="evenodd">
        <g id="Education" transform="translate(-816.000000, -48.000000)" fill-rule="nonzero">
            <g id="book_6_fill" transform="translate(816.000000, 48.000000)">
                 <path d="M24,0 L24,24 L0,24 L0,0 L24,0 Z M12.5934901,23.257841 L12.5819402,23.2595131 L12.5108777,23.2950439 L12.4918791,23.2987469 L12.4918791,23.2987469 L12.4767152,23.2950439 L12.4056548,23.2595131 C12.3958229,23.2563662 12.3870493,23.2590235 12.3821421,23.2649074 L12.3780323,23.275831 L12.360941,23.7031097 L12.3658947,23.7234994 L12.3769048,23.7357139 L12.4804777,23.8096931 L12.4953491,23.8136134 L12.4953491,23.8136134 L12.5071152,23.8096931 L12.6106902,23.7357139 L12.6232938,23.7196733 L12.6232938,23.7196733 L12.6266527,23.7031097 L12.609561,23.275831 C12.6075724,23.2657013 12.6010112,23.2592993 12.5934901,23.257841 L12.5934901,23.257841 Z M12.8583906,23.1452862 L12.8445485,23.1473072 L12.6598443,23.2396597 L12.6498822,23.2499052 L12.6498822,23.2499052 L12.6471943,23.2611114 L12.6650943,23.6906389 L12.6699349,23.7034178 L12.6699349,23.7034178 L12.678386,23.7104931 L12.8793402,23.8032389 C12.8914285,23.8068999 12.9022333,23.8029875 12.9078286,23.7952264 L12.9118235,23.7811639 L12.8776777,23.1665331 C12.8752882,23.1545897 12.8674102,23.1470016 12.8583906,23.1452862 L12.8583906,23.1452862 Z M12.1430473,23.1473072 C12.1332178,23.1423925 12.1221763,23.1452606 12.1156365,23.1525954 L12.1099173,23.1665331 L12.0757714,23.7811639 C12.0751323,23.7926639 12.0828099,23.8018602 12.0926481,23.8045676 L12.108256,23.8032389 L12.3092106,23.7104931 L12.3186497,23.7024347 L12.3186497,23.7024347 L12.3225043,23.6906389 L12.340401,23.2611114 L12.337245,23.2485176 L12.337245,23.2485176 L12.3277531,23.2396597 L12.1430473,23.1473072 Z" id="MingCute" fill-rule="nonzero"></path>
                <path d="M10.2684,20.158 C10.6312,20.3254 10.923,20.4923 11.1211,20.6153 C11.4058,20.792 11.6452,21 12.0005,21 C12.3486,21 12.5963,20.7907 12.8789,20.6153 C13.077,20.4923 13.3688,20.3254 13.7316,20.158 C14.4653,19.8193 15.4432,19.5 16.5,19.5 C17.7789,19.5 18.9375,19.9675 19.6793,20.3617 C20.198,20.6374 20.7708,20.5752 21.1937,20.342 C21.6214,20.106 22,19.6326 22,19 L22,6.5 C22,5.87876 21.7049,5.23692 21.1025,4.87097 C20.3279,4.40046 18.5863,3.5 16.5,3.5 C15.0568,3.5 13.7847,3.93067 12.8934,4.34204 C12.5386,4.50583 12.2368,4.66992 12,4.80962 C11.7632,4.66992 11.4614,4.50583 11.1066,4.34204 C10.2153,3.93067 8.94318,3.5 7.5,3.5 C5.41372,3.5 3.6721,4.40046 2.89751,4.87097 C2.29506,5.23692 2,5.87876 2,6.5 L2,19 C2,19.6326 2.37858,20.106 2.80631,20.342 C3.22918,20.5752 3.80203,20.6374 4.32073,20.3617 C5.06248,19.9675 6.22109,19.5 7.5,19.5 C8.55682,19.5 9.53474,19.8193 10.2684,20.158 Z" id="路径" fill="#09244B"></path>
            </g>
        </g>
    </g>
</svg>

<svg xmlns="http://www.w3.org/2000/svg" width="24" height="24"><g fill="none" fill-rule="nonzero"><path d="M24 0v24H0V0h24ZM12.593 23.258l-.011.002-.071.035-.02.004-.014-.004-.071-.035c-.01-.004-.019-.001-.024.005l-.004.01-.017.428.005.02.01.013.104.074.015.004.012-.004.104-.074.012-.016.004-.017-.017-.427c-.002-.01-.009-.017-.017-.018Zm.265-.113-.013.002-.185.093-.01.01-.003.011.018.43.005.012.008.007.201.093c.012.004.023 0 .029-.008l.004-.014-.034-.614c-.003-.012-.01-.02-.02-.022Zm-.715.002a.023.023 0 0 0-.027.006l-.006.014-.034.614c0 .012.007.02.017.024l.015-.002.201-.093.01-.008.004-.011.017-.43-.003-.012-.01-.01-.184-.092Z"/><path fill="#09244B" d="M10.268 20.158c.363.167.655.334.853.457.285.177.524.385.88.385.348 0 .595-.21.878-.385.198-.123.49-.29.853-.457.733-.339 1.711-.658 2.768-.658 1.279 0 2.438.468 3.18.862a1.592 1.592 0 0 0 1.514-.02c.427-.236.806-.71.806-1.342V6.5c0-.621-.295-1.263-.898-1.629-.774-.47-2.516-1.371-4.602-1.371-1.443 0-2.715.43-3.607.842-.354.164-.656.328-.893.468-.237-.14-.539-.304-.893-.468C10.215 3.931 8.943 3.5 7.5 3.5c-2.086 0-3.828.9-4.602 1.371A1.893 1.893 0 0 0 2 6.5V19c0 .633.379 1.106.806 1.342.423.233.996.295 1.515.02.741-.394 1.9-.862 3.179-.862 1.057 0 2.035.32 2.768.658Z"/></g></svg>
